src/assets/filled/Js.svg

<svg width="24" height="24" viewBox="0 0 24 24"  xmlns="http://www.w3.org/2000/svg">
<path d="M15.25 16.75H13.5C12.12 16.75 11 15.63 11 14.25C11 13.84 11.34 13.5 11.75 13.5C12.16 13.5 12.5 13.84 12.5 14.25C12.5 14.8 12.95 15.25 13.5 15.25H15.25C15.8 15.25 16.25 14.8 16.25 14.25C16.25 13.7 15.8 13.25 15.25 13.25H13.5C12.12 13.25 11 12.13 11 10.75C11 9.37 12.12 8.25 13.5 8.25H15.25C16.63 8.25 17.75 9.37 17.75 10.75C17.75 11.16 17.41 11.5 17 11.5C16.59 11.5 16.25 11.16 16.25 10.75C16.25 10.2 15.8 9.75 15.25 9.75H13.5C12.95 9.75 12.5 10.2 12.5 10.75C12.5 11.3 12.95 11.75 13.5 11.75H15.25C16.63 11.75 17.75 12.87 17.75 14.25C17.75 15.63 16.63 16.75 15.25 16.75Z" />
<path d="M12 22.6095C11.71 22.6095 11.42 22.5396 11.15 22.3896L9.66998 21.6795C9.29998 21.4995 9.14001 21.0495 9.32001 20.6795C9.50001 20.3095 9.94001 20.1495 10.32 20.3295L11.83 21.0595C11.94 21.1195 12.04 21.1195 12.11 21.0795L20.11 16.6396C20.19 16.5996 20.24 16.5096 20.24 16.4195V7.59954C20.24 7.50954 20.19 7.42954 20.11 7.37954L12.11 2.93954C12.03 2.89954 11.94 2.89954 11.87 2.93954L3.87 7.37954C3.79 7.41954 3.73999 7.50954 3.73999 7.59954V16.4195C3.73999 16.5096 3.79 16.5896 3.87 16.6396L6.38 18.0295C6.77 18.2495 7.23 18.2395 7.62 18.0095C8.00999 17.7795 8.23999 17.3795 8.23999 16.9295L8.25 8.99954C8.25 8.58954 8.59 8.24954 9 8.24954C9.41 8.24954 9.75 8.58954 9.75 8.99954L9.73999 16.9295C9.73999 17.9095 9.23 18.7995 8.38 19.2995C7.53 19.7995 6.51002 19.8095 5.65002 19.3295L3.14001 17.9395C2.58001 17.6295 2.23999 17.0395 2.23999 16.4095V7.58953C2.23999 6.95953 2.58001 6.36953 3.14001 6.05953L11.14 1.61953C11.67 1.31953 12.31 1.31953 12.84 1.61953L20.84 6.05953C21.4 6.36953 21.74 6.95953 21.74 7.58953V16.4095C21.74 17.0395 21.4 17.6295 20.84 17.9395L12.84 22.3795C12.58 22.5295 12.29 22.6095 12 22.6095Z" />
</svg>

<?xml version="1.0" encoding="UTF-8"?>
<svg width="24" height="24" viewBox="0 0 24 24" xmlns="http://www.w3.org/2000/svg">
 <path d="m15.25 16.75h-1.75c-1.38 0-2.5-1.12-2.5-2.5 0-0.41 0.34-0.75 0.75-0.75s0.75 0.34 0.75 0.75c0 0.55 0.45 1 1 1h1.75c0.55 0 1-0.45 1-1s-0.45-1-1-1h-1.75c-1.38 0-2.5-1.12-2.5-2.5s1.12-2.5 2.5-2.5h1.75c1.38 0 2.5 1.12 2.5 2.5 0 0.41-0.34 0.75-0.75 0.75s-0.75-0.34-0.75-0.75c0-0.55-0.45-1-1-1h-1.75c-0.55 0-1 0.45-1 1s0.45 1 1 1h1.75c1.38 0 2.5 1.12 2.5 2.5s-1.12 2.5-2.5 2.5z"/>
 <path d="m12 22.61c-0.29 0-0.58-0.0699-0.85-0.2199l-1.48-0.7101c-0.37-0.18-0.52997-0.63-0.34997-1s0.62-0.53 0.99999-0.35l1.51 0.73c0.11 0.06 0.21 0.06 0.28 0.02l8-4.4399c0.08-0.04 0.13-0.13 0.13-0.2201v-8.82c0-0.09-0.05-0.17-0.13-0.22l-8-4.44c-0.08-0.04-0.17-0.04-0.24 0l-8 4.44c-0.08 0.04-0.13001 0.13-0.13001 0.22v8.82c0 0.0901 0.05001 0.1701 0.13001 0.2201l2.51 1.3899c0.39 0.22 0.85 0.21 1.24-0.02 0.38999-0.23 0.61999-0.63 0.61999-1.08l0.01001-7.93c0-0.41 0.34-0.75 0.75-0.75s0.75 0.34 0.75 0.75l-0.01001 7.93c0 0.98-0.50999 1.87-1.36 2.37s-1.87 0.51-2.73 0.03l-2.51-1.39c-0.56-0.31-0.90002-0.9-0.90002-1.53v-8.82c0-0.63 0.34002-1.22 0.90002-1.53l8-4.44c0.53-0.3 1.17-0.3 1.7 0l8 4.44c0.56 0.31 0.9 0.9 0.9 1.53v8.82c0 0.63-0.34 1.22-0.9 1.53l-8 4.44c-0.26 0.15-0.55 0.23-0.84 0.23z"/>
</svg>
